public/weather-icons/cloudy.svg

<svg width="85" height="44" viewBox="0 0 85 44" fill="none" xmlns="http://www.w3.org/2000/svg">
<g clip-path="url(#clip0_3430_1600)">
<path d="M61.52 42.56H9.41999C7.23999 42.56 4.33999 40.84 3.50999 38.97C2.60082 37.5576 2.08369 35.9288 2.01165 34.2506C1.9396 32.5724 2.31522 30.9052 3.09999 29.42C4.01591 27.7718 5.38834 26.4232 7.05232 25.5362C8.7163 24.6492 10.601 24.2616 12.48 24.42C14.05 24.5 14.37 23.93 14.57 22.62C15.3736 17.6831 17.7059 13.1227 21.2383 9.58136C24.7707 6.03999 29.3251 3.69615 34.26 2.88004H34.38C39.9446 2.09892 45.6068 3.29507 50.38 6.26004C50.85 6.55004 51.32 6.86004 51.78 7.26004C54.405 9.23932 56.6024 11.7293 58.24 14.58L59 15.78" fill="white"/>
<path d="M36.7002 29.4101C37.0001 27.2891 37.9525 25.314 39.4254 23.7587C40.8983 22.2033 42.8187 21.1449 44.9202 20.7301C45.5822 20.6302 46.2507 20.58 46.9202 20.5801C49.5794 20.5793 52.1432 21.5706 54.1102 23.3601C55.498 24.6466 56.499 26.2952 57.0002 28.1201" fill="white"/>
<path d="M50.77 21.2203C53.77 16.5803 60.72 14.8703 66.26 16.0103C68.6963 16.4603 70.9452 17.6201 72.7244 19.3441C74.5035 21.0681 75.7336 23.2794 76.26 25.7003C76.96 28.7503 77.19 29.9203 79.55 31.5503C82.91 33.8803 82.67 39.0903 79.95 41.5503C79.2199 42.1656 78.3043 42.5178 77.35 42.5503H59.35" fill="white"/>
<path d="M75 41.9401H9.41975C7.23975 41.9401 4.33975 40.2201 3.50975 38.3601C2.60069 36.9458 2.08369 35.3153 2.01165 33.6356C1.93961 31.9558 2.31511 30.2871 3.09975 28.8001C4.01567 27.1519 5.3881 25.8032 7.05208 24.9162C8.71606 24.0293 10.6008 23.6417 12.4797 23.8001C14.0497 23.8801 14.3697 23.3101 14.5697 22.0101C15.3714 17.0714 17.7029 12.5087 21.2354 8.96543C24.768 5.42212 29.3235 3.07681 34.2597 2.2601H34.3797C39.9441 1.48585 45.604 2.68151 50.3797 5.6401C50.8497 5.9301 51.3197 6.2501 51.7797 6.6401C54.4025 8.62181 56.5995 11.1113 58.2397 13.9601L58.9997 15.1601" stroke="white" stroke-width="4" stroke-miterlimit="10"/>
<path d="M36.7002 28.7902C37.0006 26.6705 37.9534 24.6968 39.4264 23.1432C40.8994 21.5895 42.8195 20.533 44.9202 20.1202C45.6089 20.0213 46.3047 19.9812 47.0002 20.0002C49.6614 19.9983 52.2268 20.9937 54.1902 22.7902C55.5442 24.0703 56.5169 25.7006 57.0002 27.5002" stroke="white" stroke-width="4" stroke-miterlimit="10"/>
<path d="M50.77 20.6101C53.77 15.9601 60.72 14.2501 66.26 15.3901C68.6957 15.8413 70.944 17.0015 72.723 18.7253C74.5019 20.4492 75.7324 22.6598 76.26 25.0801C76.96 28.1401 77.19 29.3001 79.55 30.9401C82.91 33.2601 82.67 38.4701 79.95 40.9401C79.2199 41.5554 78.3043 41.9076 77.35 41.9401H74" stroke="white" stroke-width="4" stroke-miterlimit="10"/>
</g>
<defs>
<clipPath id="clip0_3430_1600">
<rect width="84.06" height="43.94" fill="white"/>
</clipPath>
</defs>
</svg>

<svg xmlns="http://www.w3.org/2000/svg" viewBox="0 0 84.06 43.94"><defs><style>.cls-1{fill:#cae3f6;}.cls-2{fill:none;stroke:#0a0b0b;stroke-miterlimit:10;stroke-width:4px;}</style></defs><title>cloudyAsset 161colored</title><g id="Layer_2" data-name="Layer 2"><g id="Layer_1-2" data-name="Layer 1"><path class="cls-1" d="M61.52,42.56H9.42c-2.18,0-5.08-1.72-5.91-3.59a9.47,9.47,0,0,1-.41-9.55,9.79,9.79,0,0,1,9.38-5c1.57.08,1.89-.49,2.09-1.8A23.9,23.9,0,0,1,34.26,2.88l.12,0a24,24,0,0,1,16,3.38c.47.29.94.6,1.4,1a24.37,24.37,0,0,1,6.46,7.32L59,15.78"/><path class="cls-1" d="M36.7,29.41a10.32,10.32,0,0,1,8.22-8.68,13.4,13.4,0,0,1,2-.15,10.68,10.68,0,0,1,7.19,2.78A10.16,10.16,0,0,1,57,28.12"/><path class="cls-1" d="M50.77,21.22c3-4.64,9.95-6.35,15.49-5.21a12.57,12.57,0,0,1,10,9.69c.7,3.05.93,4.22,3.29,5.85,3.36,2.33,3.12,7.54.4,10a4.26,4.26,0,0,1-2.6,1h-18"/><line class="cls-1" x1="65.18" y1="42.55" x2="70.57" y2="42.55"/><path class="cls-2" d="M61.52,41.94H9.42c-2.18,0-5.08-1.72-5.91-3.58A9.49,9.49,0,0,1,3.1,28.8a9.79,9.79,0,0,1,9.38-5c1.57.08,1.89-.49,2.09-1.79A23.9,23.9,0,0,1,34.26,2.26l.12,0a24.08,24.08,0,0,1,16,3.38c.47.29.94.61,1.4,1a24.49,24.49,0,0,1,6.46,7.32L59,15.16"/><path class="cls-2" d="M36.7,28.79a10.31,10.31,0,0,1,8.22-8.67A12.28,12.28,0,0,1,47,20a10.64,10.64,0,0,1,7.19,2.79A10.08,10.08,0,0,1,57,27.5"/><path class="cls-2" d="M50.77,20.61c3-4.65,9.95-6.36,15.49-5.22a12.58,12.58,0,0,1,10,9.69c.7,3.06.93,4.22,3.29,5.86,3.36,2.32,3.12,7.53.4,10a4.26,4.26,0,0,1-2.6,1H74"/><line class="cls-2" x1="65.18" y1="41.93" x2="70.57" y2="41.93"/></g></g></svg>
